assets/img/braze_icons/arrow-down-left.svg

<svg fill="none" height="24" viewBox="0 0 24 24" width="24" xmlns="http://www.w3.org/2000/svg"><path d="m9.41421 16 8.29289-8.29289c.3905-.39053.3905-1.02369 0-1.41422-.3905-.39052-1.0237-.39052-1.4142 0l-8.2929 8.29291v-7.5858c0-.55228-.44772-1-1-1s-1 .44772-1 1v10c0 .5523.44772 1 1 1h10c.5523 0 1-.4477 1-1s-.4477-1-1-1z" fill="#801ed7"/></svg>

<svg width="24" height="24" viewBox="0 0 24 24" fill="none" xmlns="http://www.w3.org/2000/svg">
<path d="M9.41421 16L17.7071 7.70711C18.0976 7.31658 18.0976 6.68342 17.7071 6.29289C17.3166 5.90237 16.6834 5.90237 16.2929 6.29289L8 14.5858V7C8 6.44772 7.55228 6 7 6C6.44772 6 6 6.44772 6 7V17C6 17.5523 6.44772 18 7 18H17C17.5523 18 18 17.5523 18 17C18 16.4477 17.5523 16 17 16H9.41421Z" fill="#801ED7"/>
</svg>
